frontend/public/assets/material-icons/folder-secure.svg

<svg xmlns="http://www.w3.org/2000/svg" viewBox="0 0 32 32">
  <path d="M13.84376,7.53645l-1.28749-1.0729A2,2,0,0,0,11.27591,6H4A2,2,0,0,0,2,8V24a2,2,0,0,0,2,2H28a2,2,0,0,0,2-2V10a2,2,0,0,0-2-2H15.12412A2,2,0,0,1,13.84376,7.53645Z" style="fill: #f9a825"/>
  <path d="M28,16V12.17193A4.11612,4.11612,0,0,0,24.393,8.0188,4.00079,4.00079,0,0,0,20,12v4H18a2,2,0,0,0-2,2v8a2,2,0,0,0,2,2H30a2,2,0,0,0,2-2V18a2,2,0,0,0-2-2Zm-4,8a2,2,0,1,1,2-2A2,2,0,0,1,24,24Zm2-8H22V12a2,2,0,0,1,4,0Z" style="fill: #fff9c4"/>
</svg>

<svg xmlns="http://www.w3.org/2000/svg" viewBox="0 0 32 32"><path fill="#f9a825" d="m13.844 7.536-1.288-1.072A2 2 0 0 0 11.276 6H4a2 2 0 0 0-2 2v16a2 2 0 0 0 2 2h24a2 2 0 0 0 2-2V10a2 2 0 0 0-2-2H15.124a2 2 0 0 1-1.28-.464"/><path fill="#fff9c4" d="M28 16v-3.828a4.116 4.116 0 0 0-3.607-4.153A4 4 0 0 0 20 12v4h-2a2 2 0 0 0-2 2v8a2 2 0 0 0 2 2h12a2 2 0 0 0 2-2v-8a2 2 0 0 0-2-2Zm-4 8a2 2 0 1 1 2-2 2 2 0 0 1-2 2m2-8h-4v-4a2 2 0 0 1 4 0Z"/></svg>
